Newaita-dark/apps/48/com.github.ronnydo.wammer.svg

<svg height="48" viewBox="0 0 48 48" width="48" xmlns="http://www.w3.org/2000/svg" xmlns:xlink="http://www.w3.org/1999/xlink"><linearGradient id="a"><stop offset="0" stop-opacity=".313726"/><stop offset=".222222" stop-opacity=".27451"/><stop offset="1" stop-opacity="0"/></linearGradient><radialGradient id="b" cx="450.908936" cy="189.579361" gradientTransform="matrix(.00000026 -.117199 -.210958 -.00000015 63.31174 95.260693)" gradientUnits="userSpaceOnUse" r="21.166656" xlink:href="#a"/><radialGradient id="c" cx="450.908936" cy="189.579361" gradientTransform="matrix(-.00000026 .117199 .210958 .00000015 -15.682186 -11.423525)" gradientUnits="userSpaceOnUse" r="21.166656" xlink:href="#a"/><radialGradient id="d" cx="450.908936" cy="189.579361" gradientTransform="matrix(-.00000026 -.117199 .210958 -.00000015 -15.682186 95.260693)" gradientUnits="userSpaceOnUse" r="21.166656" xlink:href="#a"/><radialGradient id="e" cx="450.908936" cy="189.579361" gradientTransform="matrix(.00000026 .117199 -.210958 .00000015 63.311737 -11.423525)" gradientUnits="userSpaceOnUse" r="21.166656" xlink:href="#a"/><linearGradient id="f" gradientUnits="userSpaceOnUse" x1="23.814786" x2="23.814786" y1="42.0509015" y2="6.3287225"><stop offset="0" stop-color="#009688"/><stop offset="1" stop-color="#26a69a"/></linearGradient><linearGradient id="g"><stop offset="0" stop-color="#78909c"/><stop offset="1" stop-color="#90a4ae"/></linearGradient><linearGradient id="h" gradientUnits="userSpaceOnUse" x1="23.814786" x2="23.814786" xlink:href="#g" y1="42.0509015" y2="6.3287225"/><linearGradient id="i" gradientUnits="userSpaceOnUse" x1="23.814786" x2="23.814786" xlink:href="#g" y1="42.0509005" y2="6.3287215"/><linearGradient id="j" gradientUnits="userSpaceOnUse" x1="23.814786" x2="23.814786" y1="42.0509015" y2="4.34415649995"><stop offset="0" stop-color="#ffa726"/><stop offset="1" stop-color="#ffb74d"/></linearGradient><linearGradient id="k" gradientUnits="userSpaceOnUse" x1="23.814786" x2="23.814786" y1="42.0509015" y2="6.3287225"><stop offset="0" stop-color="#f44336"/><stop offset="1" stop-color="#ef5350"/></linearGradient><path d="m23.816406 41.917969h3.96875v-1.984375h-3.96875zm0 0" fill="url(#b)"/><path d="m23.816406 41.917969h-3.972656v1.984375h3.972656zm0 0" fill="url(#c)"/><path d="m23.816406 41.917969h-3.972656v-1.984375h3.972656zm0 0" fill="url(#d)"/><path d="m23.816406 41.917969h3.96875v1.984375h-3.96875zm0 0" fill="url(#e)"/><path d="m23.816406 30.390625c-2.914062 0-5.523437 1.242187-7.335937 3.226563l5.289062 7.691406c1.054688.992187 3.039063.992187 4.09375 0l5.285157-7.691406c-1.8125-1.984376-4.421876-3.226563-7.332032-3.226563zm0 0" fill="url(#f)"/><path d="m23.816406 6.578125c-7.925781 0-15.195312 2.703125-20.941406 7.246094l3.382812 4.921875c4.78125-3.886719 10.886719-6.214844 17.558594-6.214844 6.667969 0 12.773438 2.328125 17.554688 6.214844l3.382812-4.921875c-5.742187-4.542969-13.015625-7.246094-20.9375-7.246094zm0 0" fill="url(#h)"/><path d="m23.816406 18.484375c-5.417968 0-10.359375 1.953125-14.167968 5.195313l3.402343 4.945312c2.824219-2.601562 6.601563-4.1875 10.765625-4.1875 4.160156 0 7.9375 1.585938 10.761719 4.1875l3.402344-4.945312c-3.808594-3.242188-8.75-5.195313-14.164063-5.195313zm0 0" fill="url(#f)"/><path d="m23.816406 18.484375c-5.417968 0-10.359375 1.953125-14.167968 5.195313l3.402343 4.945312c2.824219-2.601562 6.601563-4.1875 10.765625-4.1875 4.160156 0 7.9375 1.585938 10.761719 4.1875l3.402344-4.945312c-3.808594-3.242188-8.75-5.195313-14.164063-5.195313zm0 0" fill="url(#i)"/><path d="m23.816406 30.390625c-2.914062 0-5.523437 1.242187-7.335937 3.226563l5.289062 7.691406c1.054688.992187 3.039063.992187 4.09375 0l5.285157-7.691406c-1.8125-1.984376-4.421876-3.226563-7.332032-3.226563zm0 0" fill="url(#i)"/><path d="m23.816406 12.160156c-6.671875 0-12.777344 2.324219-17.558594 6.214844l-3.21875-4.679688c-.054687.042969-.109374.085938-.164062.128907l3.382812 4.921875c4.78125-3.886719 10.886719-6.214844 17.558594-6.214844 6.667969 0 12.773438 2.328125 17.554688 6.214844l3.382812-4.921875c-.054687-.042969-.109375-.085938-.164062-.128907l-3.21875 4.679688c-4.78125-3.890625-10.886719-6.214844-17.554688-6.214844zm-14.003906 11.382813c-.054688.042969-.109375.089843-.164062.136719l3.402343 4.945312c2.824219-2.601562 6.601563-4.1875 10.765625-4.1875 4.160156 0 7.9375 1.585938 10.761719 4.1875l3.402344-4.945312c-.054688-.046876-.109375-.09375-.160157-.136719l-3.242187 4.710937c-2.824219-2.601562-6.601563-4.1875-10.761719-4.1875-4.164062 0-7.941406 1.585938-10.765625 4.1875zm6.816406 9.914062c-.050781.054688-.097656.105469-.148437.160157l5.289062 7.691406c1.054688.992187 3.039063.992187 4.09375 0l5.285157-7.691406c-.046876-.054688-.097657-.105469-.148438-.160157l-5.136719 7.476563c-1.054687.992187-3.039062.992187-4.09375 0zm0 0" fill-opacity=".235294"/><path d="m23.816406 6.578125c-7.925781 0-15.195312 2.703125-20.941406 7.246094l.222656.324219c5.707032-4.4375 12.894532-7.074219 20.71875-7.074219 7.820313 0 15.007813 2.636719 20.71875 7.074219l.21875-.324219c-5.742187-4.542969-13.015625-7.246094-20.9375-7.246094zm0 11.90625c-5.417968 0-10.359375 1.953125-14.167968 5.195313l.21875.3125c3.777343-3.132813 8.632812-5.011719 13.949218-5.011719 5.3125 0 10.171875 1.878906 13.949219 5.011719l.214844-.3125c-3.808594-3.242188-8.75-5.195313-14.164063-5.195313zm0 11.90625c-2.914062 0-5.523437 1.242187-7.335937 3.226563l.199219.285156c1.800781-1.859375 4.328124-3.015625 7.136718-3.015625 2.804688 0 5.332032 1.15625 7.132813 3.015625l.199219-.285156c-1.8125-1.984376-4.421876-3.226563-7.332032-3.226563zm0 0" fill="#fff" fill-opacity=".392157"/><path d="m23.816406 6.4375c-7.957031 0-15.261718 2.714844-21.03125 7.277344l-.101562.082031 3.546875 5.15625.117187-.097656c4.753906-3.867188 10.828125-6.183594 17.46875-6.183594 6.636719 0 12.710938 2.316406 17.464844 6.183594l.117188.097656 3.546874-5.15625-.101562-.082031c-5.769531-4.5625-13.070312-7.277344-21.027344-7.277344zm0 .28125c7.84375 0 15.042969 2.660156 20.75 7.136719l-3.226562 4.691406c-4.785156-3.855469-10.878906-6.15625-17.523438-6.15625-6.648437 0-12.742187 2.300781-17.527344 6.15625l-3.222656-4.691406c5.703125-4.476563 12.902344-7.136719 20.75-7.136719zm0 11.625c-5.449218 0-10.425781 1.964844-14.257812 5.226562l-.097656.082032 3.566406 5.1875.117187-.109375c2.800781-2.582031 6.542969-4.152344 10.671875-4.152344 4.125 0 7.867188 1.570313 10.667969 4.152344l.121094.109375 3.5625-5.1875-.097657-.082032c-3.832031-3.261718-8.804687-5.226562-14.253906-5.226562zm0 .28125c5.335938 0 10.203125 1.910156 13.976563 5.082031l-3.238281 4.707031c-2.839844-2.558593-6.601563-4.117187-10.738282-4.117187-4.140625 0-7.902344 1.558594-10.742187 4.117187l-3.234375-4.707031c3.769531-3.171875 8.640625-5.082031 13.976562-5.082031zm0 11.625c-2.953125 0-5.601562 1.257812-7.4375 3.273438l-.078125.082031 5.359375 7.792969.011719.011718c.558594.523438 1.351563.78125 2.144531.78125.789063 0 1.582032-.257812 2.140625-.78125l.011719-.011718 5.359375-7.792969-.074219-.082031c-1.839844-2.015626-4.488281-3.273438-7.4375-3.273438zm0 .28125c2.828125 0 5.367188 1.191406 7.152344 3.101562l-5.210938 7.578126c-.496093.460937-1.21875.699218-1.941406.699218-.726562 0-1.449218-.238281-1.941406-.699218l-5.214844-7.578126c1.785156-1.910156 4.324219-3.101562 7.15625-3.101562zm0 0" fill="#212121"/><path d="m23.816406 32.78125-1.503906-7.285156-6.214844 4.089844 4.085938-6.214844-7.285156-1.503906 7.285156-1.503907-4.085938-6.214843 6.214844 4.085937 1.503906-7.28125 1.503906 7.28125 6.210938-4.085937-4.085938 6.214843 7.285157 1.503907-7.285157 1.503906 4.085938 6.214844-6.210938-4.089844zm0 0" fill="url(#j)"/><path d="m16.097656 14.96875 3.613282 5.492188.472656-.097657-3.136719-4.769531zm15.433594 0-.949219.625-3.136719 4.769531.472657.097657zm-16.644531 7.308594-1.988281.410156 6.8125 1.40625.472656-.722656zm17.859375 0-5.300782 1.09375.472657.722656 6.8125-1.40625zm-10.433594 3.21875-5.265625 3.464844-.949219 1.441406 6.214844-4.085938 1.503906 7.285156 1.503906-7.285156 6.210938 4.085938-.949219-1.441406-5.261719-3.464844-1.503906 7.285156zm0 0" fill-opacity=".235294"/><path d="m254.017409 134.633278-16.040135-77.700913-66.285336 43.620835 43.579171-66.285337-77.700913-16.040135 77.700913-16.040135-43.579171-66.285337 66.285336 43.579172 16.040135-77.659251 16.040135 77.659251 66.243674-43.579172-43.579172 66.285337 77.700914 16.040135-77.700914 16.040135 43.579172 66.285337-66.243674-43.620835zm0 0" fill="none" stroke="#212121" stroke-linecap="round" stroke-linejoin="round" stroke-width="3" transform="matrix(.093759 0 0 .093759 0 20.158175)"/><path d="m23.761719 26.484375-.703125-3.414063-2.914063 1.914063 1.917969-2.914063-3.414062-.703124 3.414062-.703126-1.917969-2.914062 2.914063 1.914062.703125-3.414062.707031 3.414062 2.910156-1.914062-1.914062 2.914062 3.414062.703126-3.414062.703124 1.914062 2.914063-2.910156-1.914063zm0 0" fill="url(#k)"/></svg>

<?xml version="1.0" encoding="UTF-8"?>
<svg xmlns="http://www.w3.org/2000/svg" xmlns:xlink="http://www.w3.org/1999/xlink" width="48px" height="48px" viewBox="0 0 48 48" version="1.1">
<defs>
<radialGradient id="radial0" gradientUnits="userSpaceOnUse" cx="450.908936" cy="189.579361" fx="450.908936" fy="189.579361" r="21.166656" gradientTransform="matrix(0.000000261256,-0.117199,-0.210958,-0.000000152308,63.31174,95.260693)">
<stop offset="0" style="stop-color:rgb(0%,0%,0%);stop-opacity:0.313726;"/>
<stop offset="0.222222" style="stop-color:rgb(0%,0%,0%);stop-opacity:0.27451;"/>
<stop offset="1" style="stop-color:rgb(0%,0%,0%);stop-opacity:0;"/>
</radialGradient>
<radialGradient id="radial1" gradientUnits="userSpaceOnUse" cx="450.908936" cy="189.579361" fx="450.908936" fy="189.579361" r="21.166656" gradientTransform="matrix(-0.000000261256,0.117199,0.210958,0.000000152308,-15.682186,-11.423525)">
<stop offset="0" style="stop-color:rgb(0%,0%,0%);stop-opacity:0.313726;"/>
<stop offset="0.222222" style="stop-color:rgb(0%,0%,0%);stop-opacity:0.27451;"/>
<stop offset="1" style="stop-color:rgb(0%,0%,0%);stop-opacity:0;"/>
</radialGradient>
<radialGradient id="radial2" gradientUnits="userSpaceOnUse" cx="450.908936" cy="189.579361" fx="450.908936" fy="189.579361" r="21.166656" gradientTransform="matrix(-0.000000261256,-0.117199,0.210958,-0.000000152308,-15.682186,95.260693)">
<stop offset="0" style="stop-color:rgb(0%,0%,0%);stop-opacity:0.313726;"/>
<stop offset="0.222222" style="stop-color:rgb(0%,0%,0%);stop-opacity:0.27451;"/>
<stop offset="1" style="stop-color:rgb(0%,0%,0%);stop-opacity:0;"/>
</radialGradient>
<radialGradient id="radial3" gradientUnits="userSpaceOnUse" cx="450.908936" cy="189.579361" fx="450.908936" fy="189.579361" r="21.166656" gradientTransform="matrix(0.000000261256,0.117199,-0.210958,0.000000152308,63.311737,-11.423525)">
<stop offset="0" style="stop-color:rgb(0%,0%,0%);stop-opacity:0.313726;"/>
<stop offset="0.222222" style="stop-color:rgb(0%,0%,0%);stop-opacity:0.27451;"/>
<stop offset="1" style="stop-color:rgb(0%,0%,0%);stop-opacity:0;"/>
</radialGradient>
<linearGradient id="linear0" gradientUnits="userSpaceOnUse" x1="254" y1="233.5" x2="254" y2="-147.5" gradientTransform="matrix(0.093759,0,0,0.093759,0,20.158175)">
<stop offset="0" style="stop-color:rgb(0%,58.823532%,53.333336%);stop-opacity:1;"/>
<stop offset="1" style="stop-color:rgb(14.901961%,65.098041%,60.392159%);stop-opacity:1;"/>
</linearGradient>
<linearGradient id="linear1" gradientUnits="userSpaceOnUse" x1="254" y1="233.5" x2="254" y2="-147.5" gradientTransform="matrix(0.093759,0,0,0.093759,0,20.158175)">
<stop offset="0" style="stop-color:rgb(47.058824%,56.470591%,61.176473%);stop-opacity:1;"/>
<stop offset="1" style="stop-color:rgb(56.470591%,64.313728%,68.235296%);stop-opacity:1;"/>
</linearGradient>
<linearGradient id="linear2" gradientUnits="userSpaceOnUse" x1="254" y1="233.5" x2="254" y2="-147.5" gradientTransform="matrix(0.093759,0,0,0.093759,0,20.158175)">
<stop offset="0" style="stop-color:rgb(0%,58.823532%,53.333336%);stop-opacity:1;"/>
<stop offset="1" style="stop-color:rgb(14.901961%,65.098041%,60.392159%);stop-opacity:1;"/>
</linearGradient>
<linearGradient id="linear3" gradientUnits="userSpaceOnUse" x1="254" y1="233.5" x2="254" y2="-147.5" gradientTransform="matrix(0.093759,0,0,0.093759,0,20.158174)">
<stop offset="0" style="stop-color:rgb(47.058824%,56.470591%,61.176473%);stop-opacity:1;"/>
<stop offset="1" style="stop-color:rgb(56.470591%,64.313728%,68.235296%);stop-opacity:1;"/>
</linearGradient>
<linearGradient id="linear4" gradientUnits="userSpaceOnUse" x1="254" y1="233.5" x2="254" y2="-147.5" gradientTransform="matrix(0.093759,0,0,0.093759,0,20.158174)">
<stop offset="0" style="stop-color:rgb(47.058824%,56.470591%,61.176473%);stop-opacity:1;"/>
<stop offset="1" style="stop-color:rgb(56.470591%,64.313728%,68.235296%);stop-opacity:1;"/>
</linearGradient>
<linearGradient id="linear5" gradientUnits="userSpaceOnUse" x1="254" y1="233.5" x2="254" y2="-168.666672" gradientTransform="matrix(0.093759,0,0,0.093759,0,20.158175)">
<stop offset="0" style="stop-color:rgb(100%,65.490198%,14.901961%);stop-opacity:1;"/>
<stop offset="1" style="stop-color:rgb(100%,71.764708%,30.19608%);stop-opacity:1;"/>
</linearGradient>
<linearGradient id="linear6" gradientUnits="userSpaceOnUse" x1="254" y1="233.5" x2="254" y2="-147.5" gradientTransform="matrix(0.093759,0,0,0.093759,0,20.158175)">
<stop offset="0" style="stop-color:rgb(95.686275%,26.274511%,21.176471%);stop-opacity:1;"/>
<stop offset="1" style="stop-color:rgb(93.725491%,32.549021%,31.37255%);stop-opacity:1;"/>
</linearGradient>
</defs>
<g id="surface1">
<path style=" stroke:none;fill-rule:nonzero;fill:url(#radial0);" d="M 23.816406 41.917969 L 27.785156 41.917969 L 27.785156 39.933594 L 23.816406 39.933594 Z M 23.816406 41.917969 "/>
<path style=" stroke:none;fill-rule:nonzero;fill:url(#radial1);" d="M 23.816406 41.917969 L 19.84375 41.917969 L 19.84375 43.902344 L 23.816406 43.902344 Z M 23.816406 41.917969 "/>
<path style=" stroke:none;fill-rule:nonzero;fill:url(#radial2);" d="M 23.816406 41.917969 L 19.84375 41.917969 L 19.84375 39.933594 L 23.816406 39.933594 Z M 23.816406 41.917969 "/>
<path style=" stroke:none;fill-rule:nonzero;fill:url(#radial3);" d="M 23.816406 41.917969 L 27.785156 41.917969 L 27.785156 43.902344 L 23.816406 43.902344 Z M 23.816406 41.917969 "/>
<path style=" stroke:none;fill-rule:nonzero;fill:url(#linear0);" d="M 23.816406 30.390625 C 20.902344 30.390625 18.292969 31.632812 16.480469 33.617188 L 21.769531 41.308594 C 22.824219 42.300781 24.808594 42.300781 25.863281 41.308594 L 31.148438 33.617188 C 29.335938 31.632812 26.726562 30.390625 23.816406 30.390625 Z M 23.816406 30.390625 "/>
<path style=" stroke:none;fill-rule:nonzero;fill:url(#linear1);" d="M 23.816406 6.578125 C 15.890625 6.578125 8.621094 9.28125 2.875 13.824219 L 6.257812 18.746094 C 11.039062 14.859375 17.144531 12.53125 23.816406 12.53125 C 30.484375 12.53125 36.589844 14.859375 41.371094 18.746094 L 44.753906 13.824219 C 39.011719 9.28125 31.738281 6.578125 23.816406 6.578125 Z M 23.816406 6.578125 "/>
<path style=" stroke:none;fill-rule:nonzero;fill:url(#linear2);" d="M 23.816406 18.484375 C 18.398438 18.484375 13.457031 20.4375 9.648438 23.679688 L 13.050781 28.625 C 15.875 26.023438 19.652344 24.4375 23.816406 24.4375 C 27.976562 24.4375 31.753906 26.023438 34.578125 28.625 L 37.980469 23.679688 C 34.171875 20.4375 29.230469 18.484375 23.816406 18.484375 Z M 23.816406 18.484375 "/>
<path style=" stroke:none;fill-rule:nonzero;fill:url(#linear3);" d="M 23.816406 18.484375 C 18.398438 18.484375 13.457031 20.4375 9.648438 23.679688 L 13.050781 28.625 C 15.875 26.023438 19.652344 24.4375 23.816406 24.4375 C 27.976562 24.4375 31.753906 26.023438 34.578125 28.625 L 37.980469 23.679688 C 34.171875 20.4375 29.230469 18.484375 23.816406 18.484375 Z M 23.816406 18.484375 "/>
<path style=" stroke:none;fill-rule:nonzero;fill:url(#linear4);" d="M 23.816406 30.390625 C 20.902344 30.390625 18.292969 31.632812 16.480469 33.617188 L 21.769531 41.308594 C 22.824219 42.300781 24.808594 42.300781 25.863281 41.308594 L 31.148438 33.617188 C 29.335938 31.632812 26.726562 30.390625 23.816406 30.390625 Z M 23.816406 30.390625 "/>
<path style=" stroke:none;fill-rule:nonzero;fill:rgb(0%,0%,0%);fill-opacity:0.235294;" d="M 23.816406 12.160156 C 17.144531 12.160156 11.039062 14.484375 6.257812 18.375 L 3.039062 13.695312 C 2.984375 13.738281 2.929688 13.78125 2.875 13.824219 L 6.257812 18.746094 C 11.039062 14.859375 17.144531 12.53125 23.816406 12.53125 C 30.484375 12.53125 36.589844 14.859375 41.371094 18.746094 L 44.753906 13.824219 C 44.699219 13.78125 44.644531 13.738281 44.589844 13.695312 L 41.371094 18.375 C 36.589844 14.484375 30.484375 12.160156 23.816406 12.160156 Z M 9.8125 23.542969 C 9.757812 23.585938 9.703125 23.632812 9.648438 23.679688 L 13.050781 28.625 C 15.875 26.023438 19.652344 24.4375 23.816406 24.4375 C 27.976562 24.4375 31.753906 26.023438 34.578125 28.625 L 37.980469 23.679688 C 37.925781 23.632812 37.871094 23.585938 37.820312 23.542969 L 34.578125 28.253906 C 31.753906 25.652344 27.976562 24.066406 23.816406 24.066406 C 19.652344 24.066406 15.875 25.652344 13.050781 28.253906 Z M 16.628906 33.457031 C 16.578125 33.511719 16.53125 33.5625 16.480469 33.617188 L 21.769531 41.308594 C 22.824219 42.300781 24.808594 42.300781 25.863281 41.308594 L 31.148438 33.617188 C 31.101562 33.5625 31.050781 33.511719 31 33.457031 L 25.863281 40.933594 C 24.808594 41.925781 22.824219 41.925781 21.769531 40.933594 Z M 16.628906 33.457031 "/>
<path style=" stroke:none;fill-rule:nonzero;fill:rgb(100%,100%,100%);fill-opacity:0.392157;" d="M 23.816406 6.578125 C 15.890625 6.578125 8.621094 9.28125 2.875 13.824219 L 3.097656 14.148438 C 8.804688 9.710938 15.992188 7.074219 23.816406 7.074219 C 31.636719 7.074219 38.824219 9.710938 44.535156 14.148438 L 44.753906 13.824219 C 39.011719 9.28125 31.738281 6.578125 23.816406 6.578125 Z M 23.816406 18.484375 C 18.398438 18.484375 13.457031 20.4375 9.648438 23.679688 L 9.867188 23.992188 C 13.644531 20.859375 18.5 18.980469 23.816406 18.980469 C 29.128906 18.980469 33.988281 20.859375 37.765625 23.992188 L 37.980469 23.679688 C 34.171875 20.4375 29.230469 18.484375 23.816406 18.484375 Z M 23.816406 30.390625 C 20.902344 30.390625 18.292969 31.632812 16.480469 33.617188 L 16.679688 33.902344 C 18.480469 32.042969 21.007812 30.886719 23.816406 30.886719 C 26.621094 30.886719 29.148438 32.042969 30.949219 33.902344 L 31.148438 33.617188 C 29.335938 31.632812 26.726562 30.390625 23.816406 30.390625 Z M 23.816406 30.390625 "/>
<path style=" stroke:none;fill-rule:nonzero;fill:rgb(12.941177%,12.941177%,12.941177%);fill-opacity:1;" d="M 23.816406 6.4375 C 15.859375 6.4375 8.554688 9.152344 2.785156 13.714844 L 2.683594 13.796875 L 6.230469 18.953125 L 6.347656 18.855469 C 11.101562 14.988281 17.175781 12.671875 23.816406 12.671875 C 30.453125 12.671875 36.527344 14.988281 41.28125 18.855469 L 41.398438 18.953125 L 44.945312 13.796875 L 44.84375 13.714844 C 39.074219 9.152344 31.773438 6.4375 23.816406 6.4375 Z M 23.816406 6.71875 C 31.660156 6.71875 38.859375 9.378906 44.566406 13.855469 L 41.339844 18.546875 C 36.554688 14.691406 30.460938 12.390625 23.816406 12.390625 C 17.167969 12.390625 11.074219 14.691406 6.289062 18.546875 L 3.066406 13.855469 C 8.769531 9.378906 15.96875 6.71875 23.816406 6.71875 Z M 23.816406 18.34375 C 18.367188 18.34375 13.390625 20.308594 9.558594 23.570312 L 9.460938 23.652344 L 13.027344 28.839844 L 13.144531 28.730469 C 15.945312 26.148438 19.6875 24.578125 23.816406 24.578125 C 27.941406 24.578125 31.683594 26.148438 34.484375 28.730469 L 34.605469 28.839844 L 38.167969 23.652344 L 38.070312 23.570312 C 34.238281 20.308594 29.265625 18.34375 23.816406 18.34375 Z M 23.816406 18.625 C 29.152344 18.625 34.019531 20.535156 37.792969 23.707031 L 34.554688 28.414062 C 31.714844 25.855469 27.953125 24.296875 23.816406 24.296875 C 19.675781 24.296875 15.914062 25.855469 13.074219 28.414062 L 9.839844 23.707031 C 13.609375 20.535156 18.480469 18.625 23.816406 18.625 Z M 23.816406 30.25 C 20.863281 30.25 18.214844 31.507812 16.378906 33.523438 L 16.300781 33.605469 L 21.660156 41.398438 L 21.671875 41.410156 C 22.230469 41.933594 23.023438 42.191406 23.816406 42.191406 C 24.605469 42.191406 25.398438 41.933594 25.957031 41.410156 L 25.96875 41.398438 L 31.328125 33.605469 L 31.253906 33.523438 C 29.414062 31.507812 26.765625 30.25 23.816406 30.25 Z M 23.816406 30.53125 C 26.644531 30.53125 29.183594 31.722656 30.96875 33.632812 L 25.757812 41.210938 C 25.261719 41.671875 24.539062 41.910156 23.816406 41.910156 C 23.089844 41.910156 22.367188 41.671875 21.875 41.210938 L 16.660156 33.632812 C 18.445312 31.722656 20.984375 30.53125 23.816406 30.53125 Z M 23.816406 30.53125 "/>
<path style=" stroke:none;fill-rule:nonzero;fill:url(#linear5);" d="M 23.816406 32.78125 L 22.3125 25.496094 L 16.097656 29.585938 L 20.183594 23.371094 L 12.898438 21.867188 L 20.183594 20.363281 L 16.097656 14.148438 L 22.3125 18.234375 L 23.816406 10.953125 L 25.320312 18.234375 L 31.53125 14.148438 L 27.445312 20.363281 L 34.730469 21.867188 L 27.445312 23.371094 L 31.53125 29.585938 L 25.320312 25.496094 Z M 23.816406 32.78125 "/>
<path style=" stroke:none;fill-rule:nonzero;fill:rgb(0%,0%,0%);fill-opacity:0.235294;" d="M 16.097656 14.96875 L 19.710938 20.460938 L 20.183594 20.363281 L 17.046875 15.59375 Z M 31.53125 14.96875 L 30.582031 15.59375 L 27.445312 20.363281 L 27.917969 20.460938 Z M 14.886719 22.277344 L 12.898438 22.6875 L 19.710938 24.09375 L 20.183594 23.371094 Z M 32.746094 22.277344 L 27.445312 23.371094 L 27.917969 24.09375 L 34.730469 22.6875 Z M 22.3125 25.496094 L 17.046875 28.960938 L 16.097656 30.402344 L 22.3125 26.316406 L 23.816406 33.601562 L 25.320312 26.316406 L 31.53125 30.402344 L 30.582031 28.960938 L 25.320312 25.496094 L 23.816406 32.78125 Z M 22.3125 25.496094 "/>
<path style="fill:none;stroke-width:3;stroke-linecap:round;stroke-linejoin:round;stroke:rgb(12.941177%,12.941177%,12.941177%);stroke-opacity:1;stroke-miterlimit:4;" d="M 254.017409 134.633278 L 237.977274 56.932365 L 171.691938 100.5532 L 215.271109 34.267863 L 137.570196 18.227728 L 215.271109 2.187593 L 171.691938 -64.097744 L 237.977274 -20.518572 L 254.017409 -98.177823 L 270.057544 -20.518572 L 336.301218 -64.097744 L 292.722046 2.187593 L 370.42296 18.227728 L 292.722046 34.267863 L 336.301218 100.5532 L 270.057544 56.932365 Z M 254.017409 134.633278 " transform="matrix(0.093759,0,0,0.093759,0,20.158175)"/>
<path style=" stroke:none;fill-rule:nonzero;fill:url(#linear6);" d="M 23.761719 26.484375 L 23.058594 23.070312 L 20.144531 24.984375 L 22.0625 22.070312 L 18.648438 21.367188 L 22.0625 20.664062 L 20.144531 17.75 L 23.058594 19.664062 L 23.761719 16.25 L 24.46875 19.664062 L 27.378906 17.75 L 25.464844 20.664062 L 28.878906 21.367188 L 25.464844 22.070312 L 27.378906 24.984375 L 24.46875 23.070312 Z M 23.761719 26.484375 "/>
</g>
</svg>
